!!!COM: Claude Goudimel
!!!OMD: Psalm 127: On a beau sa maison bastir
**kern	**kern	**kern	**kern
*part4	*part3	*part2	*part1
*staff4	*staff3	*staff2	*staff1
*I"bassus	*I"tenor	*I"contra	*I"superius
*clefF4	*clefC4	*clefC3	*clefC1
!!LO:TX:omd:t=
*M2/2	*M2/2	*M2/2	*M2/2
*met(c|)	*met(c|)	*met(c|)	*met(c|)
=1	=1	=1	=1
1C	1G	1E	1c
=2	=2	=2	=2
2C	2c	2G	2e
2C	2c	2G	2e
=3	=3	=3	=3
2GG	2B	2G	2d
2C	2G	2E	2c
=4	=4	=4	=4
2AA	2A	2E	2c
2GG	2B	2G	2d
=5	=5	=5	=5
1C	1c	1G	1e
=6	=6	=6	=6
1r	1r	1r	1r
=7	=7	=7	=7
1C	1c	1G	1e
=8	=8	=8	=8
2GG	2B	2G	2d
2AA	2A	2E	2c
=9	=9	=9	=9
2C	2G	2E	2c
2FF	2F	2A	[2d
=10	=10	=10	=10
1C	1E	1G	2d]
.	.	.	[2c
=11	=11	=11	=11
1GG	1D	1G	2c]
.	.	.	2B
=12	=12	=12	=12
1C	1C	1G	1c
=13	=13	=13	=13
1r	1r	1r	1r
=14	=14	=14	=14
1C	1C	1E	1G
=15	=15	=15	=15
2GG	2D	2G	2B
2C	2E	2G	2c
=16	=16	=16	=16
2AA	2F	2A	2c
2GG	2G	2B	2d
=17	=17	=17	=17
2C	2G	2c	2e
2D	2F#X	2A	2d
=18	=18	=18	=18
1GG	1G	1G	1d
=19	=19	=19	=19
1r	1r	1r	1r
=20	=20	=20	=20
1G	1G	1B	1d
=21	=21	=21	=21
2D	2A	2d	2f
2F	2A	2c	2f
=22	=22	=22	=22
2C	2c	2e	2g
2C	2c	2e	2g
=23	=23	=23	=23
1G	1B	1d	1g
=24	=24	=24	=24
1D	1A	1d	1f
=25	=25	=25	=25
1E	1G	1B	1e
=26	=26	=26	=26
1r	1r	1r	1r
=27	=27	=27	=27
1C	1G	1E	1c
=28	=28	=28	=28
2D	2F	2D	2A
2C	2E	2G	2c
=29	=29	=29	=29
2F	2A	2F	2c
2C	2G	2c	[2e
=30	=30	=30	=30
1D	1F	1A	2e]
.	.	.	[2d
=31	=31	=31	=31
1AA	1E	1A	2d]
.	.	.	2c#X
=32	=32	=32	=32
1D	1D	1A	1d
=33	=33	=33	=33
1r	1r	1r	1r
=34	=34	=34	=34
1D	1D	1F	1A
=35	=35	=35	=35
2AA	2E	2A	2c#X
2D	2F	2A	2d
=36	=36	=36	=36
2C	2G	2c	2e
2AA	[2A	2c	2e
=37	=37	=37	=37
2.BB	2A]	1B	1d
.	[2G	.	.
4C	.	.	.
=38	=38	=38	=38
2D	2G]	1A	1d
2D	2F#X	.	.
=39	=39	=39	=39
1GG;	1G;	1G;	1d;
==	==	==	==
*-	*-	*-	*-
!!!software: music21 v.9.7.1
!!!software: music21 v.8.3.0
!!!RDF**kern: > = above
!!!RDF**kern: < = below
